X:1
T:My Pilot
T:My Pilot
T:Grant Colfax Tullar
T:Grant Colfax Tullar, 1907
T:Public Domain Courtesy of the Cyber Hymnal™
T:Public Domain Courtesy of the Cyber Hymnal™
C:Grant Colfax Tullar
Z:Public Domain
Z:Courtesy of the Cyber Hymnal™
%%score ( 1 2 ) ( 3 4 )
L:1/8
Q:1/4=95
M:4/4
K:C
V:1 treble 
V:2 treble 
V:3 bass 
V:4 bass 
V:1
 [CE][DF] | [EG][Ee][EB][Ec] [Ed][Ec][CG][CE] | [CD]2 [CF]2 [FA]2 [FA][Fc] | %3
w: 1.~O’er a|track- less sea I’m sail- ing, Oft- en|tem- pest tossed, With no|
w: 2.~There are|rocks of doubt be- fore me, As I|on- ward go, And the|
w: 3.~Oft the|tem- pest, wild- ly beat- ing, Fills my|heart with fear, As I|
w: 4.~Storms may|ga- ther dark- ly round me, And the|tem- pest rage, And the|
 [Fc][FB][FB][DF] [FA][FA][FB][FA] | [EG]6 [CE][DF] | [EG][Ge][Ec][EG] [CE]2 [DE][DE] | %6
w: star of hope to guide me while I|stray; But I|find I have a friend, Who will|
w: bil- lows oft my fra- gile bark as-|sail; But no|dan- ger will I fear, Tho’ they|
w: seek to gain the har- bor bright and|fair; But there|comes to me sweet peace, All my|
w: bea- con lights a- long the shore be|dim; Yet my|heart will not dis- may, I will|
 [CE][CE][C^D][CE] [Ec]2 [EB][EA] | [^Fc][FA][F^G][FA] [Fd][FA][FB][Fc] | [Fd]6 ||"^Refrain" GG | %10
w: guide me to the end, For my|Sav- ior safe- ly pi- lots all the|way.||
w: may be hid- den near, For my|pi- lot at the helm can ne- ver|fail.||
w: doubt and fear shall cease, For I|know my pi- lot guides me safe- ly|there.|I shall|
w: wait the dawn- ing day, While my|pi- lot’s at the helm I’ll trust in|Him.||
 [Ee]3 [EB] [Ed][Ec][EB][Ec] | F2 F2 [B,F]2 [B,D][CE] | [DF][EG][FA][FB] [Fe]2 [Fd]2 | %13
w: |||
w: |||
w: rest in safe- ty o’er the|har- bor bar, And my|pi- lot’s bless- èd face I’ll|
w: |||
 G4 !fermata![FG]2 GG | [Ge]3 [GB] [Gd][Gc][GB][Gc] | [Fd]2 [Ae]2 !fermata![Af]2 [Ae][Ad] | %16
w: |||
w: |||
w: see; All the storms|of life shall then be safe-|ly past, Oh, what glo-|
w: |||
 [Gc] [EG]3 [^Fc]2 [=Fd]2 | [Ec]6 |] %18
w: ||
w: ||
w: ry that will be!||
w: ||
V:2
 x2 | x8 | x8 | x8 | x8 | x8 | x8 | x8 | x6 || GG | x8 | (CD) (B,A,) x4 | x8 | (E2 E2 G)G x2 | x8 | %15
 x8 | x8 | x6 |] %18
V:3
 [C,G,][C,G,] | [C,C][C,G,][C,G,][C,G,] [C,G,][C,G,][E,G,][E,G,] | %2
w: ||
 [F,A,]2 [F,A,]2 [D,A,]2 [D,D][D,D] | [G,D][G,D][G,D][G,B,] [G,B,][G,B,][G,D][G,B,] | %4
w: ||
 [C,C]6 [C,G,][C,G,] | [C,C][C,C][C,G,][C,G,] [C,G,]2 [B,,^G,][B,,G,] | %6
w: ||
 [A,,A,][A,,A,][A,,A,][A,,A,] [A,,A,]2 [A,D][A,C] | [D,C][D,C][D,B,][D,C] [D,A,][D,C][D,B,][D,A,] | %8
w: ||
 [G,B,]6 || G,G, | [C,G,]3 [C,G,] [C,G,][C,G,][C,G,][C,G,] | [D,G,]2 [G,,G,]2 [D,G,]2 G,G, | %12
w: |I’ll see;|||
 G,G,G,G, [G,A,]2 [G,B,]2 | [C,C]2 [^C,^A,]2 !fermata![D,B,]2 [G,B,][G,B,] | %14
w: ||
 [C,C]3 [E,C] [E,C][E,C][E,C][E,C] | [F,A,]2 [E,^C]2 !fermata![D,D]2 [E,=C][F,D] | %16
w: ||
 [G,E] [G,C]3 C2 [G,B,]2 | [C,C]6 |] %18
w: ||
V:4
 x2 | x8 | x8 | x8 | x8 | x8 | x8 | x8 | x6 || G,G, | x8 | x6 G,G, | G,G,G,G, x4 | x8 | x8 | x8 | %16
 x4 (A,D,) x2 | x6 |] %18

